X:1
T:Bright Glory to Come
T:Alonzo Judson Abbey
T:Bright Glory to Come
T:Public Domain
T:Public Domain
C:Alonzo Judson Abbey
Z:Public Domain
%%score ( 1 2 ) ( 3 4 )
L:1/8
M:4/4
K:G
V:1 treble 
V:2 treble 
V:3 bass 
V:4 bass 
V:1
 [DB][DB] [Ec]2 [DB]4 | (AG)[DF][CE] [B,D]4 | [B,G]2 [B,G][B,G] [^CG]2 [CF][CG] | [DA]6 z2 | %4
w: 1.~Eye hath not seen,|ear * hath not heard|hath the fan- cy por- trayed,|What|
w: 2.~Man- sions of joy,|ag- * es a- go,|sus the Mas- ter fore- told;|They|
w: 3.~Pil- grims are we,|seek- * ing to find,|gions than Ca- naan more fair;|Heav’n|
w: 4.~Loved ones are there,|torn * from us here,|their dear fac- es shall see;|Ne-|
 [DB][DB] [Ec]2 [DB]4 | (AG)[DF][CE] [B,D]4 | [CE]2 [EG][EG] [DG]2 [DF][DF] | [DG]6 |: %8
w: the dear Lord hath|in * re- serve, If|com- mands are o- beyed. *||
w: are for us, just|as * they were For|di- sci- ples of old. We|shall|
w: is our home, o-|ver * the tide, Where|no sor- row or care. *||
w: ver fare- well then|shall * be said, Ne-|a part- ing shall be. *||
"^Refrain" [GB][Gc] | [Gd][Gd] [Ge]2 [Gd]3 [Gc] | [GB][GB] [Gd]2 [FA]3 [Fc] | %11
w: |||
w: wan- der|no more, but on the|bright shore, We’ll share in|
w: |||
w: |||
 [GB]2 [GB][GB] (c B2) [GB] | (Ad)[Ed][G^c] [Fd]2 :| [Fc] | [GB]2 [GB][GB] (c B2) [DA] | %15
w: ||||
w: that home the glo- * ry|come; * We’ll share in|home|the glo- ry to * come.|
w: ||||
w: ||||
 (GF)[CE][CF] [B,G]4 |] %16
w: |
w: |
w: |
w: |
V:2
 x8 | E2 x6 | x8 | x8 | x8 | E2 x6 | x8 | x6 |: x2 | x8 | x8 | x4 G3 x | F2 x4 :| x | x4 G3 x | %15
w: |Nor||||His||||||||||
w: |Je-||||the||||||to|that|||
w: |Re-||||is||||||||||
w: |We||||ver||||||||||
 C2 x6 |] %16
w: |
w: |
w: |
w: |
V:3
 G,G, G,2 G,4 | [C,G,]2 [C,G,][C,G,] [G,,G,]4 | [E,G,]2 [E,G,][E,G,] [A,,A,]2 [A,,A,][A,,A,] | %3
 [D,F,]6 z2 | G,G, G,2 G,4 | [C,G,]2 [C,G,][C,G,] [G,,G,]4 | %6
 [C,G,]2 [C,C][C,C] [D,B,]2 [D,A,][D,A,] | [G,,B,]6 |: G,[G,A,] | %9
 [G,B,][G,B,] [G,C]2 [G,B,]3 [G,E] | [G,D][G,D] [B,,D]2 [D,D]3 [D,D] | %11
 [G,D]2 [G,D][G,D] (E D2) [G,D] | (DA,)[A,,A,][A,,A,] [D,A,]2 :| [D,D] | %14
 [G,D]2 [G,D][G,D] (E D2) [G,,B,] | [D,A,]2 [D,A,][D,A,] [G,,G,]4 |] %16
V:4
 G,G, G,2 G,4 | x8 | x8 | x8 | G,G, G,2 G,4 | x8 | x8 | x6 |: G, x | x8 | x8 | x4 G,3 x | A,2 x4 :| %13
 x | x4 G,3 x | x8 |] %16

